src/actions/22/view-financial-account-checking-closed.svg

<svg version="1.1" viewBox="0 0 22 22" xmlns="http://www.w3.org/2000/svg">
    <style id="current-color-scheme" type="text/css">.ColorScheme-Text { color: #363636; }.ColorScheme-NegativeText { color: #d19494; }</style>
    <path class="ColorScheme-Text" d="m5.1210938 3 1 1h11.878906v11.878906l1 1v-13.878906h-13.878906zm2 2 1 1h4.8789062v-1h-5.8789062zm6.8789062 0v1h3v-1h-3zm-4.8789062 2 1.0000002 1h0.878906v-1h-1.8789062zm-4.1210938 0.1210938v3.8789062h-2v8h13.878906l-1-1h-11.878906v-6h5.8789062l-1-1h-2.8789062v-2.8789062l-1-1zm8.121094 3.8789062 1 1h1.878906v1.878906l1 1v-3.878906h-3.878906zm-6.1601565 1.539062c-0.35618-0.005387-0.7209639 0.170895-0.9960937 0.458985-0.25847 0.27064-0.4071157 0.564628-0.5410157 0.798828-0.1395 0.244-0.2192812 0.469984-0.3007812 0.646484l-0.0214844 0.048829-0.0898437 0.398437c-0.060631 0.26971 0.0426979 0.549155 0.3125 0.609375 0.2697099 0.06063 0.6038424-0.120825 0.6640624-0.390625 0.0283301-0.29704 0.2013875-0.562416 0.3046876-0.816406 0.1452099-0.25399 0.2646212-0.467476 0.3945312-0.603516 0.18542-0.19415 0.2405694-0.158404 0.2558594-0.152344 0.015292 0.0061 0.1158006 0.074544 0.1503906 0.339844 0.00405 0.0311-0.0060198 0.186264-0.0292969 0.308594-0.036624 0.11469-0.0475914 0.248842-0.0683593 0.357422 0.0041098 0.43961 0.1145162 1.068101 1.0039062 0.957031s1.0370436-0.679863 1.1523438-0.845703c0.0727568 0.08508 0.1427306 0.169961 0.2441406 0.275391 0.14374 0.14944 0.3094462 0.311109 0.5664062 0.412109 0.2569504 0.101 0.6487464 0.070044 0.9101564-0.134766 0.04952-0.0388 0.057559-0.070515 0.099609-0.109375 0.04353 0.07058 0.051892 0.09048 0.107422 0.175782 0.15064 0.232458 0.461559 0.298154 0.69336 0.146484 0.232458-0.15064 0.298154-0.461559 0.146484-0.69336-0.18284-0.28087-0.281419-0.457715-0.34961-0.578124-0.034099-0.06021-0.052714-0.100852-0.109374-0.175782-0.028331-0.03747-0.061191-0.092253-0.181641-0.158203-0.12046-0.06595-0.386295-0.069097-0.515625 0.007813-0.11286 0.09243-0.190324 0.239899-0.277344 0.349609-0.03156 0.05098-0.06577 0.093329-0.160156 0.175781-0.09968 0.02886-0.125225-0.024256-0.208984-0.111328-0.100602-0.10458-0.2090194-0.239357-0.3242192-0.367187-0.0576021-0.06391-0.1148826-0.126827-0.1953126-0.191407-0.0804298-0.06457-0.18615-0.156815-0.40625-0.166015-0.2674199-0.01118-0.4525156 0.123182-0.5722656 0.232422s-0.203027 0.221568-0.2792968 0.330078c-0.1525301 0.21702-0.3111707 0.437683-0.3066407 0.433593 4e-3 -0.003599-0.0117831-0.002353-0.0175781-0.001953 0.012862-0.05233 0.017073-0.058302 0.03125-0.132812 0.032491-0.17077 0.0695904-0.377843 0.0371094-0.626953-0.066097-0.50694-0.3205775-0.959272-0.7734375-1.138672-0.11321-0.044842-0.2308794-0.066561-0.3496094-0.06836zm-1.9609375 3.460938v1h7v-1h-7zm8 0v1h1.878906l-1-1h-0.878906z" fill="currentColor"/>
    <path class="ColorScheme-NegativeText" d="M 3.7070309,3 2.9999997,3.7070312 18.292969,19 19,18.292969 Z" fill="currentColor"/>
</svg>

<svg xmlns="http://www.w3.org/2000/svg" viewBox="0 0 22 22">
    <path fill="currentColor" d="m5.121 3 1 1H18v11.879l1 1V3H5.121zm2 2 1 1H13V5H7.121zM14 5v1h3V5h-3zM9.121 7l1 1H11V7H9.121zM5 7.121V11H3v8h13.879l-1-1H4v-6h5.879l-1-1H6V8.121l-1-1zM13.121 11l1 1H16v1.879l1 1V11h-3.879zm-6.16 1.54c-.356-.006-.721.17-.996.458-.259.27-.407.565-.541.799-.14.244-.22.47-.301.646l-.021.05-.09.398c-.06.27.042.549.312.609.27.06.604-.12.664-.39.029-.298.202-.563.305-.817.145-.254.265-.468.394-.604.186-.194.241-.158.256-.152.016.006.116.075.15.34a1.64 1.64 0 0 1-.029.309c-.036.114-.047.248-.068.357.004.44.115 1.068 1.004.957s1.037-.68 1.152-.846c.073.085.143.17.244.276.144.15.31.31.567.412a.99.99 0 0 0 .91-.135c.05-.039.058-.07.1-.11.043.071.052.091.107.176a.5.5 0 1 0 .84-.546c-.183-.281-.281-.458-.35-.579-.034-.06-.052-.1-.11-.175-.027-.038-.06-.093-.18-.159-.121-.065-.387-.069-.516.008-.113.093-.19.24-.278.35a.72.72 0 0 1-.16.176c-.1.029-.125-.025-.209-.112-.1-.104-.209-.239-.324-.367a1.608 1.608 0 0 0-.195-.191c-.08-.065-.186-.157-.407-.166-.267-.011-.452.123-.572.232s-.203.222-.28.33l-.306.434c.004-.004-.012-.003-.017-.002.012-.052.017-.058.03-.133.033-.17.07-.378.038-.627-.066-.507-.32-.96-.773-1.139a.985.985 0 0 0-.35-.068zM5 16v1h7v-1H5zm8 0v1h1.879l-1-1H13z" style="color:#050505;opacity:.7"/>
    <path fill="currentColor" d="M3.707 3 3 3.707 18.293 19l.707-.707Z" style="color:#d98c8c"/>
</svg>
